X: 46
T: Polonäs, sexdregasamlingen del 2 nr 46
B: Sexdregasamlingen del 2 nr 46
S: efter Anders Larsson
O: Sexdrega, Västergötland
R: Slängpolska
Z: 2011-11-16 av Nils L
M: 3/4
L: 1/16
K: D
d2d2 A2A2 F2F2 | DEFD EFGE F4 | F2ED d2c2 B2A2 | B2A^G A2E2 A,4 ::
A4   A2Bc B2A2 | B2A2 B2AB G4 | B4 B2cd c2B2 | c2B2 c2Bc A4 |
d2f2 e2g2 f2a2 | e2c2 d2A2 G2F2 | e2g2 f2d2 e2c2 | d4 D8 :|

